epam-assets/icon-sources/18/social-network-twitter.svg

<svg width="18" height="18" viewBox="0 0 18 18" fill="none" xmlns="http://www.w3.org/2000/svg">
<g id="18/social-network-twitter">
<path id="icon" d="M10.3189 7.77597L16.1481 1H14.7667L9.70525 6.88348L5.66266 1H1L7.1132 9.89686L1 17.0025H2.38141L7.72648 10.7894L11.9958 17.0025H16.6584L10.3185 7.77597H10.3189ZM8.42685 9.97525L7.80745 9.08932L2.87915 2.03991H5.00092L8.97812 7.72901L9.59751 8.61493L14.7674 16.0099H12.6456L8.42685 9.97558V9.97525Z" fill="#6C6F80"/>
</g>
</svg>

<svg xmlns="http://www.w3.org/2000/svg" width="18" height="18" fill="none" viewBox="0 0 18 18">
  <path fill="#6C6F80" d="M10.319 7.776 16.149 1h-1.382L9.705 6.883 5.663 1H1l6.113 8.897L1 17.003h1.381l5.345-6.214 4.27 6.214h4.662l-6.34-9.227Zm-1.892 2.2-.62-.887L2.88 2.04h2.122l3.977 5.69.62.886 5.17 7.395h-2.122l-4.22-6.034Z"/>
</svg>
